icons/respirator.svg

<svg width="48" height="48" viewBox="0 0 48 48" fill="none" xmlns="http://www.w3.org/2000/svg">
<path d="M24.4254 28.0663C24.9342 28.0663 25.3467 27.6538 25.3467 27.145C25.3467 26.6362 24.9342 26.2237 24.4254 26.2237C23.9166 26.2237 23.5041 26.6362 23.5041 27.145C23.5041 27.6538 23.9166 28.0663 24.4254 28.0663Z" fill="black"/>
<path d="M25.3467 30.8301C25.3467 31.3389 24.9342 31.7514 24.4254 31.7514C23.9166 31.7514 23.5041 31.3389 23.5041 30.8301C23.5041 30.3213 23.9166 29.9089 24.4254 29.9089C24.9342 29.9089 25.3467 30.3213 25.3467 30.8301Z" fill="black"/>
<path d="M26.2679 29.9086C26.7766 29.9086 27.1891 29.4961 27.1891 28.9873C27.1891 28.4785 26.7766 28.0661 26.2679 28.0661C25.7591 28.0661 25.3466 28.4785 25.3466 28.9873C25.3466 29.4961 25.7591 29.9086 26.2679 29.9086Z" fill="black"/>
<path d="M23.5041 28.9873C23.5041 29.4961 23.0916 29.9086 22.5828 29.9086C22.074 29.9086 21.6616 29.4961 21.6616 28.9873C21.6616 28.4785 22.074 28.0661 22.5828 28.0661C23.0916 28.0661 23.5041 28.4785 23.5041 28.9873Z" fill="black"/>
<path fill-rule="evenodd" clip-rule="evenodd" d="M24.4253 23.3815C21.329 23.3815 18.819 25.8915 18.819 28.9878C18.819 32.0841 21.329 34.5941 24.4253 34.5941C27.5215 34.5941 30.0316 32.0841 30.0316 28.9878C30.0316 25.8915 27.5215 23.3815 24.4253 23.3815ZM20.819 28.9878C20.819 26.9961 22.4336 25.3815 24.4253 25.3815C26.417 25.3815 28.0316 26.9961 28.0316 28.9878C28.0316 30.9795 26.417 32.5941 24.4253 32.5941C22.4336 32.5941 20.819 30.9795 20.819 28.9878Z" fill="black"/>
<path d="M24.4253 18.7752C23.7183 18.7752 23.1348 19.1326 22.6945 19.5439C22.2499 19.9591 21.8573 20.5141 21.5095 21.1196C21.2344 21.5985 21.3996 22.2097 21.8785 22.4848C22.3574 22.7599 22.9687 22.5947 23.2438 22.1158C23.542 21.5967 23.8188 21.2304 24.0596 21.0055C24.3046 20.7767 24.4224 20.7752 24.4253 20.7752C24.4282 20.7752 24.546 20.7767 24.791 21.0055C25.0318 21.2304 25.3086 21.5967 25.6068 22.1158C25.8819 22.5947 26.4932 22.7599 26.9721 22.4848C27.451 22.2097 27.6162 21.5985 27.3411 21.1196C26.9933 20.5141 26.6007 19.9591 26.1561 19.5439C25.7158 19.1326 25.1322 18.7752 24.4253 18.7752Z" fill="black"/>
<path fill-rule="evenodd" clip-rule="evenodd" d="M24.5001 6C29.1945 6 33.0001 9.80558 33.0001 14.5V27.4881C33.0773 27.7129 33.1512 27.9333 33.2215 28.1484C33.4895 27.8947 33.7598 27.6655 34.0297 27.4636C34.6026 27.035 35.2135 26.6994 35.8281 26.539C36.4486 26.3772 37.1423 26.3798 37.7656 26.7396L40.9568 28.582C41.5802 28.9419 41.9294 29.5414 42.0994 30.1597C42.2679 30.7721 42.2827 31.469 42.198 32.1794C42.028 33.6041 41.4336 35.2841 40.4921 36.9148C39.5506 38.5455 38.3929 39.9003 37.244 40.7598C36.6712 41.1884 36.0603 41.524 35.4456 41.6844C34.8252 41.8462 34.1315 41.8437 33.5081 41.4838L30.3168 39.6414C29.6935 39.2815 29.3444 38.682 29.1743 38.0637C29.1124 37.8387 29.0713 37.6023 29.0482 37.3579L29.0316 37.3581H19.819L19.8022 37.3579C19.7791 37.6023 19.738 37.8388 19.6761 38.0638C19.506 38.6821 19.1569 39.2816 18.5336 39.6415L15.3424 41.4839C14.7191 41.8438 14.0254 41.8464 13.4049 41.6845C12.7903 41.5242 12.1794 41.1886 11.6065 40.76C10.4576 39.9005 9.29994 38.5456 8.35845 36.9149C7.41697 35.2842 6.82248 33.6042 6.65256 32.1795C6.56782 31.4691 6.58266 30.7723 6.7511 30.1598C6.92114 29.5415 7.27024 28.9421 7.89357 28.5822L11.0848 26.7397C11.7081 26.3799 12.4018 26.3773 13.0223 26.5391C13.6369 26.6995 14.2478 27.0351 14.8207 27.4637C15.0906 27.6655 15.3609 27.8948 15.6288 28.1485C15.7435 27.798 15.8674 27.4333 16.0001 27.0586V14.5C16.0001 9.80558 19.8057 6 24.5001 6ZM24.5001 12C20.9102 12 18.0001 14.9101 18.0001 18.5V22.2923C18.1558 21.9803 18.3156 21.6724 18.4794 21.3707C19.2297 19.9885 20.0873 18.6895 21.0328 17.7227C21.9619 16.7728 23.1074 16.0112 24.4252 16.0112C25.7429 16.0112 26.8884 16.7728 27.8175 17.7227C28.763 18.6895 29.6206 19.9885 30.3709 21.3707C30.5877 21.77 30.7976 22.1802 31.0001 22.5965V18.5C31.0001 14.9101 28.0899 12 24.5001 12ZM17.9861 31.1673C18.0139 31.2142 18.0414 31.2613 18.0687 31.3087C18.8654 32.6886 19.4136 34.1037 19.6664 35.3696C19.6726 35.3687 19.6788 35.3678 19.6851 35.3669C19.7289 35.3611 19.7736 35.3581 19.819 35.3581H29.0316C29.0834 35.3581 29.1343 35.362 29.184 35.3696C29.4368 34.1037 29.985 32.6885 30.7817 31.3086C30.8533 31.1846 30.9261 31.0622 31.0001 30.9415V27.8257C30.3817 26.0669 29.5619 24.0725 28.6132 22.3249C27.9049 21.0202 27.1503 19.9009 26.3877 19.1211C25.6085 18.3245 24.9499 18.0112 24.4252 18.0112C23.9004 18.0112 23.2418 18.3245 22.4627 19.1211C21.7 19.9009 20.9454 21.0202 20.2371 22.3249C19.3631 23.9349 18.5985 25.7542 18.0001 27.406V31C18.0001 31.057 17.9953 31.1129 17.9861 31.1673ZM11.1793 28.9946L12.0848 28.4718C12.1224 28.4501 12.2388 28.4017 12.5174 28.4744C12.8018 28.5486 13.1789 28.7331 13.6226 29.0651C14.507 29.7268 15.4974 30.855 16.3367 32.3087C17.176 33.7624 17.6579 35.1842 17.7887 36.281C17.8543 36.8313 17.8256 37.2501 17.7477 37.5335C17.6713 37.8111 17.5712 37.8877 17.5336 37.9094L16.6282 38.4322C16.6205 38.252 16.6053 38.0697 16.5834 37.8866C16.4135 36.4619 15.819 34.7819 14.8775 33.1512C13.936 31.5205 12.7783 30.1656 11.6295 29.3061C11.4818 29.1956 11.3315 29.0913 11.1793 28.9946ZM14.3424 39.7519C14.38 39.7302 14.4801 39.6535 14.5565 39.3759C14.6344 39.0925 14.6631 38.6737 14.5975 38.1234C14.4667 37.0266 13.9848 35.6049 13.1455 34.1512C12.3062 32.6974 11.3158 31.5692 10.4314 30.9076C9.98764 30.5756 9.61058 30.391 9.32617 30.3168C9.0476 30.2441 8.93119 30.2925 8.89357 30.3142C8.85596 30.336 8.75585 30.4126 8.6795 30.6902C8.60156 30.9736 8.57285 31.3924 8.63848 31.9427C8.76929 33.0395 9.2512 34.4612 10.0905 35.9149C10.9298 37.3687 11.9201 38.4969 12.8046 39.1586C13.2483 39.4906 13.6254 39.6751 13.9098 39.7493C14.1884 39.822 14.3048 39.7736 14.3424 39.7519ZM32.2224 38.4321L31.3168 37.9093C31.2792 37.8876 31.1791 37.811 31.1027 37.5334C31.0248 37.25 30.9961 36.8312 31.0617 36.2809C31.1925 35.1841 31.6744 33.7623 32.5137 32.3086C33.353 30.8549 34.3434 29.7267 35.2278 29.065C35.6715 28.733 36.0486 28.5485 36.333 28.4743C36.6116 28.4016 36.728 28.45 36.7656 28.4717L37.6711 28.9944C37.5189 29.0912 37.3687 29.1955 37.221 29.306C36.0722 30.1655 34.9145 31.5203 33.973 33.151C33.0315 34.7817 32.437 36.4617 32.2671 37.8864C32.2453 38.0696 32.23 38.2519 32.2224 38.4321ZM39.957 30.3141C39.9193 30.2924 39.8029 30.244 39.5244 30.3167C39.2399 30.3909 38.8629 30.5754 38.4191 30.9074C37.5347 31.5691 36.5444 32.6973 35.7051 34.151C34.8658 35.6047 34.3839 37.0265 34.253 38.1233C34.1874 38.6736 34.2161 39.0924 34.2941 39.3758C34.3704 39.6534 34.4705 39.73 34.5081 39.7517C34.5457 39.7734 34.6622 39.8218 34.9407 39.7491C35.2251 39.6749 35.6022 39.4904 36.046 39.1584C36.9304 38.4967 37.9207 37.3685 38.76 35.9148C39.5993 34.4611 40.0812 33.0393 40.212 31.9425C40.2777 31.3922 40.249 30.9734 40.171 30.69C40.0947 30.4124 39.9946 30.3358 39.957 30.3141ZM30.7625 12.7526C29.2088 11.0606 26.9783 10 24.5001 10C22.0218 10 19.7913 11.0606 18.2376 12.7526C19.0009 10.0114 21.5156 8 24.5001 8C27.4846 8 29.9993 10.0114 30.7625 12.7526Z" fill="black"/>
</svg>

<svg
  xmlns="http://www.w3.org/2000/svg"
  width="24"
  height="24"
  viewBox="0 0 24 24"
  fill="none"
  stroke="currentColor"
  stroke-width="2"
  stroke-linecap="round"
  stroke-linejoin="round"
>
  <path d="M24.425 28.066a.921.921 0 1 0 0-1.842.921.921 0 0 0 0 1.842" />
  <path d="M25.347 30.83a.921.921 0 1 1-1.843 0 .921.921 0 0 1 1.843 0" />
  <path d="M26.268 29.909a.921.921 0 1 0 0-1.843.921.921 0 0 0 0 1.843" />
  <path d="M23.504 28.987a.921.921 0 1 1-1.843 0 .921.921 0 0 1 1.843 0" />
  <path
    fill-rule="evenodd"
    d="M24.425 23.382a5.606 5.606 0 1 0 0 11.212 5.606 5.606 0 0 0 0-11.213m-3.606 5.606a3.606 3.606 0 1 1 7.213 0 3.606 3.606 0 0 1-7.213 0"
    clip-rule="evenodd"
  />
  <path d="M24.425 18.775c-.707 0-1.29.358-1.73.769-.445.415-.838.97-1.186 1.576a1 1 0 1 0 1.735.996c.298-.52.575-.886.816-1.11.245-.23.362-.23.365-.23s.121 0 .366.23c.24.224.518.59.816 1.11a1 1 0 0 0 1.734-.996c-.348-.606-.74-1.16-1.185-1.576-.44-.411-1.024-.769-1.73-.769" />
  <path
    fill-rule="evenodd"
    d="M24.5 6a8.5 8.5 0 0 1 8.5 8.5v12.988q.116.338.221.66.404-.38.809-.684c.573-.429 1.184-.765 1.798-.925.62-.162 1.314-.16 1.938.2l3.19 1.843c.624.36.973.96 1.143 1.578.169.612.184 1.309.099 2.02-.17 1.424-.764 3.104-1.706 4.735-.941 1.63-2.1 2.985-3.248 3.845-.573.428-1.184.764-1.798.924-.62.162-1.314.16-1.938-.2l-3.191-1.843c-.623-.36-.973-.959-1.143-1.577a4 4 0 0 1-.126-.706h-9.246q-.034.367-.126.706c-.17.618-.52 1.218-1.142 1.578l-3.192 1.842c-.623.36-1.317.362-1.937.2-.615-.16-1.226-.495-1.798-.924-1.15-.86-2.307-2.214-3.249-3.845-.941-1.63-1.536-3.31-1.705-4.736-.085-.71-.07-1.407.098-2.02.17-.617.52-1.217 1.143-1.577l3.19-1.842c.624-.36 1.318-.363 1.938-.2.615.16 1.226.495 1.799.924q.406.303.808.684.171-.526.371-1.09V14.5A8.5 8.5 0 0 1 24.5 6m0 6a6.5 6.5 0 0 0-6.5 6.5v3.792q.234-.469.48-.921c.75-1.383 1.607-2.681 2.553-3.648.929-.95 2.074-1.712 3.392-1.712s2.463.762 3.392 1.712c.946.966 1.804 2.265 2.554 3.648q.325.6.63 1.226V18.5a6.5 6.5 0 0 0-6.5-6.5m-6.514 19.167.083.142c.796 1.38 1.345 2.795 1.597 4.06l.02-.002a1 1 0 0 1 .133-.009h9.213q.077 0 .152.012c.253-1.266.801-2.681 1.598-4.061q.107-.186.218-.367v-3.116c-.618-1.76-1.438-3.753-2.387-5.501-.708-1.305-1.463-2.424-2.225-3.204-.78-.796-1.438-1.11-1.963-1.11s-1.183.314-1.962 1.11c-.763.78-1.518 1.9-2.226 3.204-.874 1.61-1.638 3.43-2.237 5.081V31q0 .086-.014.167m-6.807-2.172.906-.523c.037-.022.154-.07.432.002.285.075.662.26 1.106.591.884.662 1.874 1.79 2.714 3.244.839 1.453 1.32 2.875 1.452 3.972.065.55.037.97-.041 1.252-.077.278-.177.355-.214.376l-.906.523a7 7 0 0 0-.045-.545c-.17-1.425-.764-3.105-1.705-4.736s-2.1-2.985-3.248-3.845a7 7 0 0 0-.45-.311m3.163 10.757c.038-.022.138-.099.214-.376.078-.283.107-.702.042-1.253-.131-1.096-.613-2.518-1.453-3.972-.839-1.454-1.83-2.582-2.714-3.243-.443-.332-.82-.517-1.105-.591-.278-.073-.395-.024-.432-.003-.038.022-.138.099-.214.376-.078.284-.107.702-.042 1.253.131 1.096.613 2.518 1.453 3.972.839 1.454 1.83 2.582 2.714 3.244.443.332.82.516 1.105.59.278.073.395.025.432.003m17.88-1.32-.905-.523c-.038-.021-.138-.098-.214-.376-.078-.283-.107-.702-.041-1.252.13-1.097.612-2.519 1.452-3.972.839-1.454 1.83-2.582 2.714-3.244.444-.332.82-.517 1.105-.59.279-.073.395-.025.433-.003l.905.522a7 7 0 0 0-.45.312c-1.149.86-2.306 2.214-3.248 3.845-.941 1.63-1.536 3.31-1.706 4.735a7 7 0 0 0-.045.546m7.735-8.118c-.038-.022-.154-.07-.433.003-.284.074-.661.258-1.105.59-.884.662-1.875 1.79-2.714 3.244-.84 1.454-1.321 2.875-1.452 3.972-.066.55-.037.97.041 1.253.076.277.177.354.214.376.038.021.154.07.433-.003.284-.074.661-.259 1.105-.59.884-.662 1.875-1.79 2.714-3.244.84-1.454 1.321-2.876 1.452-3.972.066-.55.037-.97-.041-1.253-.076-.278-.176-.354-.214-.376m-9.195-17.561A8.48 8.48 0 0 0 24.5 10a8.48 8.48 0 0 0-6.262 2.753 6.503 6.503 0 0 1 12.525 0"
    clip-rule="evenodd"
  />
</svg>
